X: 34234
T: Reel Traditionelle
R: reel
M: 4/4
K: Dmajor
|:fedf edBc|dBBA FADF|D2 FA dBBA|FAde f2de|
fedf edBc|dBBA FADF|D2 FA dBBA|1 FDEF D2 de:|2 FDEF D2 AG||
|:FD D2 F2 GF|E3G B2AG|FA A2 DA A2|BDAD dBAG|
FD D2 F2 GF|E3G B2 AG|FAdf edce|1 dfec dBAG:|2 dfec d2de||

